icons/svg/accommodation/summer_camp.svg

<?xml version="1.0" encoding="UTF-8" standalone="no"?>
<!-- Created with Inkscape (http://www.inkscape.org/) -->

<svg
   xmlns:dc="http://purl.org/dc/elements/1.1/"
   xmlns:cc="http://creativecommons.org/ns#"
   xmlns:rdf="http://www.w3.org/1999/02/22-rdf-syntax-ns#"
   xmlns:svg="http://www.w3.org/2000/svg"
   xmlns="http://www.w3.org/2000/svg"
   xmlns:sodipodi="http://sodipodi.sourceforge.net/DTD/sodipodi-0.dtd"
   xmlns:inkscape="http://www.inkscape.org/namespaces/inkscape"
   version="1.0"
   width="580"
   height="580"
   id="svg2"
   sodipodi:version="0.32"
   inkscape:version="0.91 r"
   sodipodi:docname="summer_camp.svg"
   inkscape:output_extension="org.inkscape.output.svg.inkscape">
  <metadata
     id="metadata2975">
    <rdf:RDF>
      <cc:Work
         rdf:about="">
        <dc:format>image/svg+xml</dc:format>
        <dc:type
           rdf:resource="http://purl.org/dc/dcmitype/StillImage" />
        <cc:license
           rdf:resource="http://web.resource.org/cc/PublicDomain" />
        <dc:language>en</dc:language>
        <dc:title />
      </cc:Work>
    </rdf:RDF>
  </metadata>
  <sodipodi:namedview
     inkscape:window-height="1006"
     inkscape:window-width="1920"
     inkscape:pageshadow="2"
     inkscape:pageopacity="0.0"
     guidetolerance="10.0"
     gridtolerance="10.0"
     objecttolerance="10.0"
     borderopacity="1.0"
     bordercolor="#666666"
     pagecolor="#ffffff"
     id="base"
     inkscape:zoom="0.46083856"
     inkscape:cx="184.30392"
     inkscape:cy="443.07633"
     inkscape:window-x="1680"
     inkscape:window-y="0"
     inkscape:current-layer="svg2"
     showgrid="false"
     inkscape:window-maximized="1" />
  <defs
     id="defs4">
    <inkscape:perspective
       sodipodi:type="inkscape:persp3d"
       inkscape:vp_x="0 : 290 : 1"
       inkscape:vp_y="0 : 1000 : 0"
       inkscape:vp_z="580 : 290 : 1"
       inkscape:persp3d-origin="290 : 193.33333 : 1"
       id="perspective2441" />
    <inkscape:perspective
       id="perspective3452"
       inkscape:persp3d-origin="30 : 20 : 1"
       inkscape:vp_z="60 : 30 : 1"
       inkscape:vp_y="0 : 1000 : 0"
       inkscape:vp_x="0 : 30 : 1"
       sodipodi:type="inkscape:persp3d" />
    <symbol
       viewBox="244.5 110 489 219.9"
       id="symbol-university">
      <path
         id="path4460"
         d="M79,43l57,119c0,0,21-96,104-96s124,106,124,106l43-133l82-17L0,17L79,43z" />
      <path
         id="path4462"
         d="M94,176l-21,39"
         stroke-width="20"
         stroke="#000000"
         fill="none" />
      <path
         id="path4464"
         d="M300,19c0,10.5-22.6,19-50.5,19S199,29.5,199,19s22.6-19,50.5-19S300,8.5,300,19z" />
      <path
         id="path4466"
         d="M112,216l-16-38L64,88c0,0-9-8-4-35s16-24,16-24"
         stroke-width="20"
         stroke="#000000"
         fill="none" />
    </symbol>
    <inkscape:perspective
       id="perspective4471"
       inkscape:persp3d-origin="372.04724 : 350.78739 : 1"
       inkscape:vp_z="744.09448 : 526.18109 : 1"
       inkscape:vp_y="0 : 1000 : 0"
       inkscape:vp_x="0 : 526.18109 : 1"
       sodipodi:type="inkscape:persp3d" />
    <inkscape:perspective
       id="perspective4668"
       inkscape:persp3d-origin="6 : 4 : 1"
       inkscape:vp_z="12 : 6 : 1"
       inkscape:vp_y="0 : 1000 : 0"
       inkscape:vp_x="0 : 6 : 1"
       sodipodi:type="inkscape:persp3d" />
  </defs>
  <g
     id="g1327">
    <path
       d="M 66.275,1.768 C 24.94,1.768 1.704,23.139 1.704,66.804 L 1.704,516.927 C 1.704,557.771 22.599,579.156 63.896,579.156 L 515.92,579.156 C 557.227,579.156 578.149,558.841 578.149,516.927 L 578.149,66.804 C 578.149,24.203 557.227,1.768 514.628,1.768 C 514.624,1.768 66.133,1.625 66.275,1.768 z"
       style="fill:#111111;stroke:#eeeeee;stroke-width:3.40799999"
       id="path1329" />
  </g>
  <path
     inkscape:connector-curvature="0"
     d="m 469.49414,213.13036 c -4.63932,0.72814 -8.61532,3.71014 -10.61334,7.96002 l -26.9756,54.39342 -0.44223,0.44223 -34.9356,22.11114 -48.64453,0 -2.65334,0 c -0.29474,-0.009 -0.5897,-0.009 -0.88443,0 -0.58907,-0.0369 -1.17985,-0.0369 -1.7689,0 -2.20866,0.24088 -4.32958,0.99834 -6.19112,2.21112 l -42.45337,28.30226 c -1.57976,1.04682 -2.93319,2.40025 -3.98,3.98 l -28.30229,42.45341 c -4.39205,6.59417 -2.60889,15.50007 3.98341,19.89494 6.5923,4.39486 15.49895,2.61552 19.89663,-3.97491 l 26.53338,-40.24228 26.97557,-17.68893 -9.7289,62.79567 -23.43778,52.62452 -51.74009,20.34226 c -7.327,2.93079 -10.89081,11.24637 -7.96001,18.57336 2.9308,7.32698 11.24636,10.89081 18.57337,7.96002 l 56.60453,-22.55337 c 2.48227,-1.00324 4.62906,-2.69001 6.19108,-4.86446 l 0,-0.44222 c 0.31953,-0.42524 0.61482,-0.86817 0.88446,-1.32666 l 32.72449,-50.41341 11.4978,45.99117 0,2.65334 -40.24229,67.21788 c -5.9664,6.64188 -4.36739,17.08136 3.31343,21.63296 7.68082,4.55159 17.60571,0.94109 20.56661,-7.48182 l 42.4534,-70.75568 c 1.35261,-2.12017 2.11582,-4.56247 2.21111,-7.07556 l 0,-70.75567 14.15114,-70.31345 10.61336,-9.28668 27.41781,-22.11114 -0.44222,-0.88445 c 1.46516,-1.22066 2.66851,-2.72485 3.53779,-4.42223 l 28.30225,-56.60454 c 5.26131,-10.38385 -3.56507,-22.32542 -15.03558,-20.34226 z m -99.0126,-15.32089 c -23.1671,0 -41.94777,18.78064 -41.94777,41.94777 0,23.16713 18.78067,41.94777 41.94777,41.94777 23.16709,0 41.94777,-18.78064 41.94777,-41.94777 0,-23.16713 -18.78068,-41.94777 -41.94777,-41.94777 z"
     id="path4"
     style="fill:#ffffff;fill-opacity:1"
     sodipodi:nodetypes="cccccccccccccsccccccscccccccccscccccccccccsssss" />
  <circle
     style="color:#000000;clip-rule:nonzero;display:inline;overflow:visible;visibility:visible;opacity:1;isolation:auto;mix-blend-mode:normal;color-interpolation:sRGB;color-interpolation-filters:linearRGB;solid-color:#000000;solid-opacity:1;fill:#ffffff;fill-opacity:1;fill-rule:evenodd;stroke:none;stroke-width:32;stroke-linecap:butt;stroke-linejoin:miter;stroke-miterlimit:4;stroke-dasharray:none;stroke-dashoffset:0;stroke-opacity:1;marker:none;color-rendering:auto;image-rendering:auto;shape-rendering:auto;text-rendering:auto;enable-background:accumulate"
     id="path4152"
     cx="521.96722"
     cy="150.29248"
     r="32.025265" />
  <path
     inkscape:connector-curvature="0"
     style="font-size:12px;fill:#ffffff;fill-opacity:1;fill-rule:evenodd;stroke:#ffffff;stroke-width:0.55654788;stroke-opacity:1"
     d="m 145.76713,40.067543 -106.068504,91.659207 21.213559,0 0,137.48873 63.641255,0 0,-69.87042 43.88199,0 1.4e-4,69.87042 62.18651,0 0,-137.48873 21.21368,0 -106.06863,-91.659207 0,0 0,0 z"
     id="path645"
     sodipodi:nodetypes="ccccccccccccc" />
</svg>

<svg width="580" height="580" viewBox="0 0 580 580" fill="none" xmlns="http://www.w3.org/2000/svg">
<g clip-path="url(#clip0)">
<path d="M66.2751 1.76802C24.9401 1.76802 1.7041 23.139 1.7041 66.804V516.927C1.7041 557.771 22.5991 579.156 63.8961 579.156H515.92C557.227 579.156 578.149 558.841 578.149 516.927V66.804C578.149 24.203 557.227 1.76802 514.628 1.76802C514.624 1.76802 66.1331 1.62502 66.2751 1.76802Z" fill="#111111" stroke="#EEEEEE" stroke-width="3.408"/>
<path d="M469.494 213.13C464.855 213.858 460.879 216.84 458.881 221.09L431.905 275.484L431.463 275.926L396.527 298.037H347.883H345.229C344.935 298.028 344.64 298.028 344.345 298.037C343.756 298 343.165 298 342.576 298.037C340.367 298.278 338.247 299.035 336.385 300.248L293.932 328.551C292.352 329.597 290.998 330.951 289.952 332.531L261.649 374.984C257.257 381.578 259.04 390.484 265.633 394.879C272.225 399.274 281.132 397.494 285.529 390.904L312.063 350.662L339.038 332.973L329.309 395.768L305.872 448.393L254.132 468.735C246.805 471.666 243.241 479.982 246.172 487.309C249.102 494.636 257.418 498.199 264.745 495.269L321.349 472.715C323.832 471.712 325.978 470.025 327.541 467.851V467.409C327.86 466.983 328.155 466.54 328.425 466.082L361.149 415.668L372.647 461.66V464.313L332.405 531.531C326.439 538.173 328.038 548.612 335.718 553.164C343.399 557.715 353.324 554.105 356.285 545.682L398.738 474.926C400.091 472.806 400.854 470.364 400.95 467.851V397.095L415.101 326.782L425.714 317.495L453.132 295.384L452.69 294.499C454.155 293.279 455.358 291.775 456.227 290.077L484.53 233.473C489.791 223.089 480.965 211.147 469.494 213.13V213.13ZM370.481 197.809C347.314 197.809 328.534 216.59 328.534 239.757C328.534 262.924 347.314 281.705 370.481 281.705C393.649 281.705 412.429 262.924 412.429 239.757C412.429 216.59 393.649 197.809 370.481 197.809V197.809Z" fill="white"/>
<path d="M521.967 182.318C539.654 182.318 553.992 167.98 553.992 150.292C553.992 132.605 539.654 118.267 521.967 118.267C504.28 118.267 489.942 132.605 489.942 150.292C489.942 167.98 504.28 182.318 521.967 182.318Z" fill="white"/>
<path fill-rule="evenodd" clip-rule="evenodd" d="M145.767 40.0676L39.6987 131.727H60.9123V269.216H124.554V199.345H168.436L168.436 269.216H230.622V131.727H251.836L145.767 40.0676V40.0676Z" fill="white" stroke="white" stroke-width="0.556548"/>
</g>
<defs>
<clipPath id="clip0">
<rect width="580" height="580" fill="white"/>
</clipPath>
</defs>
</svg>
